!!!!SEGMENT: Ric1003e-Missa_Veni_sponsa_Christi-Agnus
!!!id: Ric1003e
!!!AGN: Mass; Agnus
!!!voices: 2-6
!!!OPR: Missa Veni sponsa Christi
!!!COM: Jean Richafort
!!!OTL: Agnus
**kern	**kern	**kern	**kern	**kern	**kern
*part6	*part5	*part4	*part3	*part2	*part1
*staff6	*staff5	*staff4	*staff3	*staff2	*staff1
*I"Bassus	*I"Tenor II	*I"Tenor I	*I"Altus	*I"Superius II	*I"Superius I
*I'B	*I'T. II	*I'T. I	*I'A	*I'S. II	*I'S. I
*clefF4	*clefGv2	*clefGv2	*clefGv2	*clefG2	*clefG2
*k[b-]	*k[b-]	*k[b-]	*k[b-]	*k[b-]	*k[b-]
*F:	*F:	*F:	*F:	*F:	*F:
*M2/1	*M2/1	*M2/1	*M2/1	*M2/1	*M2/1
*met(C|)	*met(C|)	*met(C|)	*met(C|)	*met(C|)	*met(C|)
=1	=1	=1	=1	=1	=1
!!section: Agnus Dei I
!!!OMD: Agnus Dei I
0r	0r	1c	0r	0r	0r
.	.	2d	.	.	.
.	.	[2f	.	.	.
=2	=2	=2	=2	=2	=2
0r	0r	2f]	0r	0r	0cc
.	.	4e	.	.	.
.	.	4d	.	.	.
.	.	2e	.	.	.
.	.	2c	.	.	.
=3	=3	=3	=3	=3	=3
0r	0r	4d	0r	0r	1a
.	.	4e	.	.	.
.	.	4f	.	.	.
.	.	4d	.	.	.
.	.	2e	.	.	1cc
.	.	[2f	.	.	.
=4	=4	=4	=4	=4	=4
0r	0r	4f]	0r	0r	1.dd
.	.	4e	.	.	.
.	.	4d	.	.	.
.	.	4c	.	.	.
.	.	2B-y	.	.	.
.	.	2c	.	.	2cc
=5	=5	=5	=5	=5	=5
0r	0r	2F	0r	0r	2.cc
.	.	2f	.	.	.
.	.	.	.	.	4b-y
.	.	2e	.	.	2cc
.	.	[2f	.	.	[2dd
=6	=6	=6	=6	=6	=6
1F	0r	2f]	0r	0r	4dd]
.	.	.	.	.	4cc
.	.	2e	.	.	1cc
2G	.	1d	.	.	.
[2B-y	.	.	.	.	2bnXi
=7	=7	=7	=7	=7	=7
2B-]	0r	1c	0f	0r	0cc
4A	.	.	.	.	.
4G	.	.	.	.	.
2A	.	1r	.	.	.
2F	.	.	.	.	.
=8	=8	=8	=8	=8	=8
4G	0r	0r	1d	0r	0r
4A	.	.	.	.	.
4B-y	.	.	.	.	.
4G	.	.	.	.	.
2A	.	.	1f	.	.
[2B-y	.	.	.	.	.
=9	=9	=9	=9	=9	=9
4B-]	0r	1r	1.g	0r	0r
4A	.	.	.	.	.
4G	.	.	.	.	.
4F	.	.	.	.	.
2E	.	1c	.	.	.
2F	.	.	2f	.	.
=10	=10	=10	=10	=10	=10
2BB-y	0r	1d	2.f	0r	0r
2B-y	.	.	.	.	.
.	.	.	4e	.	.
2A	.	2c	2f	.	.
[2B-y	.	[2d	[2g	.	.
=11	=11	=11	=11	=11	=11
2B-]	0r	2d]	4g]	0r	1r
.	.	.	4f	.	.
2A	.	2c	1f	.	.
1G	.	2d	.	.	1g
.	.	2B-y	2e	.	.
=12	=12	=12	=12	=12	=12
1F	0r	[0c	1f	0r	1a
2C	.	.	1r	.	2g
[2F	.	.	.	.	[2a
=13	=13	=13	=13	=13	=13
2F]	0r	0c]	0r	0r	2a]
2E	.	.	.	.	2g
2F	.	.	.	.	2a
2A	.	.	.	.	2f
=14	=14	=14	=14	=14	=14
2B-y	0r	1r	2r	0r	1g
2c	.	.	2g	.	.
1F	.	1c	1a	.	2r
.	.	.	.	.	2cc
=15	=15	=15	=15	=15	=15
0r	0r	2B-y	2g	0r	2dd
.	.	2.A	1a	.	2.cc
.	.	4B-y	.	.	4dd
.	.	4c	2g	.	4ee
.	.	4d	.	.	4ff
=16	=16	=16	=16	=16	=16
0r	0r	4c	2a	0r	4ee
.	.	4A	.	.	4cc
.	.	2d	2f	.	1ff
.	.	2.c	1g	.	.
.	.	.	.	.	2ee
.	.	4G	.	.	.
=17	=17	=17	=17	=17	=17
1r	0r	2B-y	1r	0r	2dd
.	.	2c	.	.	1cc
1G	.	1d	2r	.	.
.	.	.	2g	.	2b-y
=18	=18	=18	=18	=18	=18
1A	0r	1c	2e	0r	2.a
.	.	.	2f	.	.
.	.	.	.	.	4cc
2G	.	2r	2.g	.	2b-y
[2A	.	2c	.	.	2a
.	.	.	4e	.	.
=19	=19	=19	=19	=19	=19
2A]	0r	1d	2f	0r	1b-y
2G	.	.	2g	.	.
2A	.	2c	2e	.	1a
2F	.	[2c	2f	.	.
=20	=20	=20	=20	=20	=20
1G	0r	2c]	1d	0r	1r
.	.	2B-y	.	.	.
1r	.	4A	1e	.	[1cc
.	.	4G	.	.	.
.	.	4A	.	.	.
.	.	4B-y	.	.	.
=21	=21	=21	=21	=21	=21
1F	0r	2c	1f	0r	2cc]
.	.	1d	.	.	2a
1G	.	.	2r	.	2.b-y
.	.	2G	2d	.	.
.	.	.	.	.	4cc
=22	=22	=22	=22	=22	=22
2F	0r	2.d	2.f	0r	2a
1G	.	.	.	.	2.b-y
.	.	4c	4f	.	.
.	.	4B-y	2e	.	.
.	.	4A	.	.	4g
2F	.	[2c	2f	.	2a
=23	=23	=23	=23	=23	=23
2G	0r	2c]	2d	0r	1g
2E	.	1B-y	2e	.	.
1F	.	.	1c	.	1f
.	.	2A	.	.	.
=24	=24	=24	=24	=24	=24
[0BB-y	0r	1B-y	1r	0r	0f
.	.	1r	1f	.	.
=25	=25	=25	=25	=25	=25
0BB-]	0r	1B-y	2f	0r	1r
.	.	.	1f	.	.
.	.	2B-y	.	.	1b-y
.	.	[2B-y	2d	.	.
=26	=26	=26	=26	=26	=26
0r	0r	2B-]	2f	0r	2b-y
.	.	2.G	2e	.	1b-y
.	.	.	1d	.	.
.	.	4A	.	.	.
.	.	4B-y	.	.	2g
.	.	4c	.	.	.
=27	=27	=27	=27	=27	=27
0r	0r	2d	1r	0r	1b-y
.	.	2G	.	.	.
.	.	[1d	1f	.	1a
=28	=28	=28	=28	=28	=28
1B-y	0r	2d]	2f	0r	0r
.	.	2d	1f	.	.
2B-y	.	2.d	.	.	.
[2B-y	.	.	2d	.	.
.	.	4c	.	.	.
=29	=29	=29	=29	=29	=29
2B-]	0r	2d	2f	0r	0r
2G	.	1e	2.g	.	.
1B-y	.	.	.	.	.
.	.	.	4f	.	.
.	.	[2d	4e	.	.
.	.	.	4d	.	.
=30	=30	=30	=30	=30	=30
1A	0r	2d]	1e	0r	1r
.	.	2c#i	.	.	.
1r	.	[1d	2.a	.	1ff
.	.	.	4g	.	.
=31	=31	=31	=31	=31	=31
1B-y	0r	1d]	4f	0r	2ff
.	.	.	4e	.	.
.	.	.	2.d	.	1ff
2B-y	.	1r	.	.	.
.	.	.	4e	.	.
[2B-y	.	.	2f	.	2dd
=32	=32	=32	=32	=32	=32
2B-]	0r	0r	2d	0r	2ff
2G	.	.	2g	.	2.ee
1B-y	.	.	2r	.	.
.	.	.	.	.	4dd
.	.	.	2d	.	[2dd
=33	=33	=33	=33	=33	=33
1A	0r	0r	2e	0r	2dd]
.	.	.	2c	.	2cc
2G	.	.	2d	.	2b-y
2F	.	.	2f	.	2a
=34	=34	=34	=34	=34	=34
2G	0r	0r	2e	0r	2.b-y
1B-y	.	.	1d	.	.
.	.	.	.	.	4a
.	.	.	.	.	2g
2A	.	.	2c	.	2f
=35	=35	=35	=35	=35	=35
1G	0r	2r	2.d	0r	4g
.	.	.	.	.	4a
.	.	2G	.	.	4b-y
.	.	.	4e	.	4cc
1F	.	2A	4f	.	2dd
.	.	.	4d	.	.
.	.	2F	[2f	.	[2cc
=36	=36	=36	=36	=36	=36
1r	0r	1G	4f]	0r	2cc]
.	.	.	4e	.	.
.	.	.	4d	.	4b-y
.	.	.	4c	.	4a
1G	.	2r	[1d	.	2.b-y
.	.	2G	.	.	.
.	.	.	.	.	4a
=37	=37	=37	=37	=37	=37
1D	0r	2A	2d]	0r	4f
.	.	.	.	.	4g
.	.	2F	2f	.	1g
2C	.	2G	2e	.	.
2BB-y	.	[2B-y	2d	.	[2g
=38	=38	=38	=38	=38	=38
1F	0r	2B-]	0c	0r	4g]
.	.	.	.	.	4f
.	.	2A	.	.	1f
1C	.	1G	.	.	.
.	.	.	.	.	2e
=39	=39	=39	=39	=39	=39
0Fl	0r	0Fl	0cl	0r	0fl
=40||	=40||	=40||	=40||	=40||	=40||
*M2/1	*M2/1	*M2/1	*M2/1	*M2/1	*M2/1
*met(C|)	*met(C|)	*met(C|)	*met(C|)	*met(C|)	*met(C|)
!!section: Agnus Dei II
!!!OMD: Agnus Dei II
0r	0r	0r	1.f	0r	0r
.	.	.	4e	.	.
.	.	.	4d	.	.
=41	=41	=41	=41	=41	=41
0r	0r	0r	2e	0r	0cc
.	.	.	2f	.	.
.	.	.	2c	.	.
.	.	.	[2f	.	.
=42	=42	=42	=42	=42	=42
0r	0r	0r	2f]	0r	1a
.	.	.	2d	.	.
.	.	.	2e	.	1cc
.	.	.	2f	.	.
=43	=43	=43	=43	=43	=43
0r	0r	0r	2.B-y	0r	1.dd
.	.	.	4c	.	.
.	.	.	4d	.	.
.	.	.	4e	.	.
.	.	.	4f	.	2cc
.	.	.	4d	.	.
=44	=44	=44	=44	=44	=44
0r	0r	0r	2e	0r	1cc
.	.	.	2.f	.	.
.	.	.	.	.	[1ff
.	.	.	4g	.	.
.	.	.	[2a	.	.
=45	=45	=45	=45	=45	=45
0r	0r	0r	2a]	0r	2ff]
.	.	.	4g	.	4ee
.	.	.	4f	.	4dd
.	.	.	2g	.	2ee
.	.	.	[2a	.	[2cc
=46	=46	=46	=46	=46	=46
0r	0r	0r	4a]	0r	4cc]
.	.	.	4g	.	4b-y
.	.	.	1f	.	2a
.	.	.	.	.	1g
.	.	.	2e	.	.
=47	=47	=47	=47	=47	=47
0r	0r	0r	1f	0r	2r
.	.	.	.	.	2.f
.	.	.	2r	.	.
.	.	.	.	.	4g
.	.	.	[2F	.	4a
.	.	.	.	.	4b-y
=48	=48	=48	=48	=48	=48
0r	0r	0r	2F]	0r	4a
.	.	.	.	.	4b-y
.	.	.	4G	.	4cc
.	.	.	4A	.	4a
.	.	.	2B-y	.	2dd
.	.	.	2A	.	[2cc
=49	=49	=49	=49	=49	=49
0r	0r	0r	1d	0r	2cc]
.	.	.	.	.	2b-y
.	.	.	2.c	.	2a
.	.	.	.	.	[2g
.	.	.	4d	.	.
=50	=50	=50	=50	=50	=50
0r	0r	0r	2e	0r	2g]
.	.	.	2f	.	1cc
.	.	.	1d	.	.
.	.	.	.	.	2bnXi
=51	=51	=51	=51	=51	=51
0r	0r	0r	0c	0r	[0cc
=52	=52	=52	=52	=52	=52
0r	0r	0r	2r	0r	1cc]
.	.	.	2c	.	.
.	.	.	2f	.	2r
.	.	.	2e	.	2cc
=53	=53	=53	=53	=53	=53
0r	0r	0r	2f	0r	1dd
.	.	.	2g	.	.
.	.	.	2a	.	2cc
.	.	.	2d	.	[2dd
=54	=54	=54	=54	=54	=54
0r	0r	0r	1e	0r	2dd]
.	.	.	.	.	2cc
.	.	.	2.f	.	2dd
.	.	.	.	.	[2ff
.	.	.	4g	.	.
=55	=55	=55	=55	=55	=55
0r	0r	0r	2a	0r	2ff]
.	.	.	2.g	.	4ee
.	.	.	.	.	4dd
.	.	.	.	.	4ee
.	.	.	4f	.	4dd
.	.	.	4e	.	4cc
.	.	.	4d	.	4b-y
=56	=56	=56	=56	=56	=56
0r	0r	0r	4c	0r	4a
.	.	.	4B-y	.	4g
.	.	.	4A	.	2.cc
.	.	.	4G	.	.
.	.	.	4A	.	.
.	.	.	4B-y	.	4b-y
.	.	.	4c	.	[2a
.	.	.	4A	.	.
=57	=57	=57	=57	=57	=57
0r	0r	0r	2.B-y	0r	2a]
.	.	.	.	.	2g
.	.	.	4A	.	.
.	.	.	1F	.	2.a
.	.	.	.	.	8gL
.	.	.	.	.	8aJ
=58	=58	=58	=58	=58	=58
0r	0r	0r	2r	0r	2b-y
.	.	.	2F	.	2a
.	.	.	2.B-y	.	2f
.	.	.	.	.	[2f
.	.	.	4c	.	.
=59	=59	=59	=59	=59	=59
0r	0r	0r	2d	0r	4f]
.	.	.	.	.	4g
.	.	.	2d	.	4a
.	.	.	.	.	4b-y
.	.	.	2.c	.	2cc
.	.	.	.	.	2g
.	.	.	4d	.	.
=60	=60	=60	=60	=60	=60
0r	0r	0r	4e	0r	2.cc
.	.	.	4f	.	.
.	.	.	2.e	.	.
.	.	.	.	.	4b-y
.	.	.	.	.	2g
.	.	.	4c	.	.
.	.	.	2f	.	2a
=61	=61	=61	=61	=61	=61
0r	0r	0r	2d	0r	1b-y
.	.	.	1e-X	.	.
.	.	.	.	.	1cc
.	.	.	2c	.	.
=62	=62	=62	=62	=62	=62
0r	0r	0r	2d	0r	2f
.	.	.	2e	.	2cc
.	.	.	2f	.	2a
.	.	.	[2a	.	[2cc
=63	=63	=63	=63	=63	=63
0r	0r	0r	2a]	0r	2cc]
.	.	.	4g	.	4b-y
.	.	.	4f	.	4a
.	.	.	2e	.	2g
.	.	.	2d	.	2b-y
=64	=64	=64	=64	=64	=64
0r	0r	0r	4c	0r	2a
.	.	.	4d	.	.
.	.	.	4e	.	4g
.	.	.	4f	.	4a
.	.	.	2g	.	4b-y
.	.	.	.	.	4g
.	.	.	2c	.	2cc
=65	=65	=65	=65	=65	=65
0r	0r	0r	2d	0r	2b-y
.	.	.	1f	.	2a
.	.	.	.	.	1g
.	.	.	2e	.	.
=66	=66	=66	=66	=66	=66
0r	0r	0r	0fl	0r	0fl
=67||	=67||	=67||	=67||	=67||	=67||
*M2/1	*M2/1	*M2/1	*M2/1	*M2/1	*M2/1
*met(C|)	*met(C|)	*met(C|)	*met(C|)	*met(C|)	*met(C|)
!!section: Agnus Dei III
!!!OMD: Agnus Dei III
!	!	!LO:TX:a:t=Canon&colon; tenor I/superius II at the upper octave (3 breves) 	!	!	!
0F	0r	0c	1.f	0r	0a
.	.	.	4e	.	.
.	.	.	4d	.	.
=68	=68	=68	=68	=68	=68
1F	1F	1A	2c	0r	1a
.	.	.	2d	.	.
2C	1G	1c	1e	.	1g
2E	.	.	.	.	.
=69	=69	=69	=69	=69	=69
2D	2A	1.d	1.f	0r	2.f
1BB-y	1B-y	.	.	.	.
.	.	.	.	.	4e
.	.	.	.	.	2d
2C	2G	2c	[2e	.	2g
=70	=70	=70	=70	=70	=70
1F	2F	0c	4e]	0cc	2a
.	.	.	4c	.	.
.	2A	.	1f	.	2f
1C	1G	.	.	.	1g
.	.	.	2e	.	.
=71	=71	=71	=71	=71	=71
0F	0r	0r	2d	1a	2.f
.	.	.	1c	.	.
.	.	.	.	.	4g
.	.	.	.	1cc	4a
.	.	.	.	.	4b-y
.	.	.	[2f	.	[2a
=72	=72	=72	=72	=72	=72
1.B-y	0r	0r	4f]	1.dd	2a]
.	.	.	4e	.	.
.	.	.	4d	.	4g
.	.	.	4c	.	4f
.	.	.	2d	.	2g
2A	.	.	2e	2cc	[2a
=73	=73	=73	=73	=73	=73
2.F	0r	0c	1f	0cc	4a]
.	.	.	.	.	4f
.	.	.	.	.	2.a
4G	.	.	.	.	.
2.A	.	.	1e	.	.
.	.	.	.	.	4b-y
.	.	.	.	.	[2cc
4B-y	.	.	.	.	.
=74	=74	=74	=74	=74	=74
2c	1F	1A	2r	0r	4cc]
.	.	.	.	.	4b-y
1F	.	.	2.c	.	2a
.	1G	1c	.	.	1g
.	.	.	4d	.	.
2E	.	.	2e	.	.
=75	=75	=75	=75	=75	=75
2D	2A	1.d	4f	0r	1r
.	.	.	4e	.	.
1G	1B-y	.	4d	.	.
.	.	.	4c	.	.
.	.	.	2B-y	.	1g
2C	2G	2c	2c	.	.
=76	=76	=76	=76	=76	=76
2F	2F	0c	1A	0cc	2a
1F	2A	.	.	.	2f
.	1G	.	1r	.	1g
2E	.	.	.	.	.
=77	=77	=77	=77	=77	=77
1F	0r	0r	1.A	1a	1cc
1F	.	.	.	1cc	[1a
.	.	.	[2f	.	.
=78	=78	=78	=78	=78	=78
1D	1A	0r	4f]	1.dd	1a]
.	.	.	4e	.	.
.	.	.	2f	.	.
2G	2G	.	1g	.	1r
2C	2G	.	.	2cc	.
=79	=79	=79	=79	=79	=79
2F	2A	0r	1f	0cc	1a
1F	2c	.	.	.	.
.	1c	.	2r	.	1g
2E	.	.	[2c	.	.
=80	=80	=80	=80	=80	=80
1F	0r	1A	4c]	0r	2a
.	.	.	4B-y	.	.
.	.	.	2c	.	1cc
1r	.	1G	1d	.	.
.	.	.	.	.	2b-y
=81	=81	=81	=81	=81	=81
0r	1F	2A	2c	0r	2cc
.	.	1c	2.f	.	2a
.	1G	.	.	.	1b-y
.	.	.	4d	.	.
.	.	2B-y	2e	.	.
=82	=82	=82	=82	=82	=82
1F	2F	2c	1f	0r	2a
.	2A	1f	.	.	2cc
2.G	4G	.	1B-y	.	1b-y
.	4A	.	.	.	.
.	4B-y	2e	.	.	.
4F	4c	.	.	.	.
=83	=83	=83	=83	=83	=83
2D	2d	1f	2r	1a	0r
2F	1c	.	2.f	.	.
1G	.	1r	.	1g	.
.	.	.	4d	.	.
.	2B-y	.	2e	.	.
=84	=84	=84	=84	=84	=84
2F	1c	0r	2f	2a	2r
2A	.	.	2c	1cc	2f
1G	1r	.	2.d	.	4g
.	.	.	.	.	4a
.	.	.	.	2b-y	4b-y
.	.	.	4c	.	4g
=85	=85	=85	=85	=85	=85
0r	0r	0r	2f	2cc	2a
.	.	.	2d	1ff	2f
.	.	.	1c	.	1g
.	.	.	.	2ee	.
=86	=86	=86	=86	=86	=86
1F	0r	1c	2r	1ff	[0f
.	.	.	2A	.	.
2BB-y	.	2B-y	2d	1r	.
[2F	.	[2c	2c	.	.
=87	=87	=87	=87	=87	=87
2F]	1f	2c]	2A	0r	1f]
2BB-y	.	2d	2B-y	.	.
2C	2e	4c	2G	.	1r
.	.	4B-y	.	.	.
[2D	[2f	4A	2F	.	.
.	.	4G	.	.	.
=88	=88	=88	=88	=88	=88
4D]	2f]	2A	1f	0r	2r
4C	.	.	.	.	.
1F	2c	2F	.	.	2a
.	2B-y	1G	1r	.	2b-y
2E	[2c	.	.	.	2g
=89	=89	=89	=89	=89	=89
1F	2c]	1F	0r	1cc	2a
.	2A	.	.	.	2f
2r	1G	1r	.	2b-y	1g
2C	.	.	.	[2cc	.
=90	=90	=90	=90	=90	=90
2F	1A	1r	2r	2cc]	2.f
2D	.	.	2.F	2dd	.
.	.	.	.	.	4g
[1F	1r	1c	.	4cc	4a
.	.	.	4G	4b-y	4b-y
.	.	.	4A	4a	2cc
.	.	.	4B-y	4g	.
=91	=91	=91	=91	=91	=91
1F]	0r	2c	2c	2a	2f
.	.	2A	2d	2f	1ff
1C	.	2G	1c	1g	.
.	.	2G	.	.	2ee
=92	=92	=92	=92	=92	=92
2F	0r	1A	2r	1f	2dd
2A	.	.	4c	.	1cc
.	.	.	4d	.	.
1G	.	1r	4e	1r	.
.	.	.	4f	.	.
.	.	.	[2g	.	2b-y
=93	=93	=93	=93	=93	=93
0C	1r	1r	4g]	1r	2a
.	.	.	4f	.	.
.	.	.	1f	.	4g
.	.	.	.	.	4f
.	[1c	1G	.	1cc	1g
.	.	.	2e	.	.
=94	=94	=94	=94	=94	=94
2r	1c]	2A	1f	2cc	2r
2F	.	2F	.	2a	4c
.	.	.	.	.	4d
2C	2c	2G	1r	2g	4e
.	.	.	.	.	4f
2G	[2d	[2B-y	.	2g	[2g
=95	=95	=95	=95	=95	=95
2D	1d]	2B-]	1r	1a	4g]
.	.	.	.	.	4f
2F	.	2A	.	.	1f
1C	1c	1G	2r	1r	.
.	.	.	2G	.	2e
=96	=96	=96	=96	=96	=96
2D	1A	1F	2d	1r	2f
1F	.	.	2.c	.	1a
.	[1c	1r	.	1g	.
.	.	.	4d	.	.
2E	.	.	2e	.	[2g
=97	=97	=97	=97	=97	=97
2F	1c]	0r	1A	2a	2g]
2A	.	.	.	2f	1f
1G	1r	.	1B-y	2g	.
.	.	.	.	[2b-y	2e
=98	=98	=98	=98	=98	=98
1F	0r	0r	2.c	2b-]	2f
.	.	.	.	2a	2cc
.	.	.	4A	.	.
1r	.	.	2B-y	1g	2dd
.	.	.	[2c	.	[2cc
=99	=99	=99	=99	=99	=99
1F	1r	1r	4c]	1f	4cc]
.	.	.	4F	.	4b-y
.	.	.	1f	.	2a
2C	[1c	1G	.	1r	2g
2C	.	.	2e	.	[2cc
=100	=100	=100	=100	=100	=100
2.F	1c]	2A	1f	0r	4cc]
.	.	.	.	.	4b-y
.	.	2F	.	.	2.a
4E	.	.	.	.	.
2C	2c	2G	2e	.	.
.	.	.	.	.	4g
2G	[2d	[2B-y	[2d	.	[2g
=101	=101	=101	=101	=101	=101
2E	1d]	2B-]	2d]	0r	2g]
2F	.	2A	2f	.	1f
1C	1c	1G	1g	.	.
.	.	.	.	.	2e
=102	=102	=102	=102	=102	=102
2r	1A	1Fl	2a	1r	1f
2F	.	.	1f	.	.
2C	[1cl	1r	.	1g	2r
2C	.	.	2e	.	[2cc
=103	=103	=103	=103	=103	=103
1F	1c]	0r	2f	2a	4cc]
.	.	.	.	.	4b-y
.	.	.	2.c	2f	2.a
1E-X	1r	.	.	2g	.
.	.	.	4B-y	.	4g
.	.	.	2G	[2b-y	[2g
=104	=104	=104	=104	=104	=104
1F	0r	0r	2A	2b-]	2g]
.	.	.	2F	2a	1f
1C	.	.	1G	1g	.
.	.	.	.	.	2e
=105	=105	=105	=105	=105	=105
[0Fl	0r	0r	[0Al	1fl	2f
.	.	.	.	.	1a
.	.	.	.	1r	.
.	.	.	.	.	4g
.	.	.	.	.	4f
=106	=106	=106	=106	=106	=106
0F]	0r	0r	0A]	0r	0ccl
==	==	==	==	==	==
*-	*-	*-	*-	*-	*-
!!!system-decoration: s1,s2,s3,s4,s5,s6
!!!RDF**kern: i = editorial accidental
!!!RDF**kern: l = terminal long
!!!ENC: David Nivarlet
!!!END: 2026/03/03
!!!EED: Benjamin Ory
!!!EEV: 2026/03/12
!!!YEC: Copyright 2026 Benjamin Ory, All Rights Reserved
!!!ONB: Translated from MusicXML on 2026/03/12
